X:83
C:Page 41
T:Inness? Jigg. MBe.83
S:Matthew Betham MS, Towcett Cumbria, 1815
O:England;Cumbria;Towcett
Z:VMP – Hugh Taylor, 2012
M:6/8
L:1/8
Q:3/8=120
R:.Jig
N:NB-All these crotchets were written dotted, and I have made them undotted.
K:G
D|GAG BAG|”^NB”d2 G”^NB”e2 g|edc BAG|EAA A2 B|
GAG BAG|”^NB”d2 G”^NB”e2 G|gfe dec|BGG G2:|
|:d|gdB GAG|DED GAG|edc BAG|EGA ~A “^NB”F2|
gdB GAG|ecA FED|gfe dec|BGG G2:|

